X: 0614
T: TURNER'S HORNPIPE
B: Oliver Ditson "The Boston Collection of Instrumental Music" 1910 p.61 #4
F: http://conquest.imslp.info/files/imglnks/usimg/8/8f/IMSLP175643-PMLP309456-bostoncollection00bost_bw.pdf
M: 2/4
L: 1/16
K: G
D2 |\
GDGB dGBd | gfed cBAG | ABcd ecAG | GFAF D2EF |\
GDGB dcBd | gfed cBAG | ABcd ecAF | G2G2G2 :|
|: FG |\
ADFD ADFD | cCBC A2GA | BDGD BDGD | dDcD B2D2 |\
GDGB dGBd | gfed cBAG | ABcd ecAF | G2G2G2 :|

%%sep 1 1 500
%%sep 1 1 500
